X:2887
T:Hickory dickory dock
C:anon.
O:USA
Z:Transcribed by Frank Nordberg - http://www.musicaviva.com
F:http://abc.musicaviva.com/tunes/usa/hickory-dickory-dock.abc
M:3/4
L:1/4
K:G
GAB|AGF|G3|z2 z|
G z B|A z F|G3|z2 G|
G z G|B z B|A z A|c2 z|
BcB|AGF|G z D|G z z|]
W:
W:
W:  From Musica Viva - http://www.musicaviva.com
W:  the Internet center for free sheet music downloads.
